X:1
T:Title
%%score { 1 | ( 2 3 ) }
L:1/8
M:6/8
K:G
V:1 treble nm="Grand Piano"
V:2 bass 
V:3 bass 
V:1
 z3 z2[Q:1/4=100] D | [B,D]2 [B,D] DEF | G2 A B2 [Ec] | B2 A A2 B | [CA]2 [B,G] [B,G][DF][CE] | %5
 [B,D]2 [B,D] DEF | G2 A B2 [Ec] | B2 A G2 F | [B,G]6 | .[FA]3 .[EA]3 | .[^DB]3 z2 [FA] | %11
 [EG]2 [FA] [GB]2 [G^c] | [Fd]3- [Fd]2 c | B2 A GFE | [B,D]2 [G,B,] [B,D]2 [B,D] | %15
 [CE]2 [Ec] [DB]2 [CA] |[M:5/8] [B,G]-[B,G]- [B,G]3 |] %17
V:2
 z3 z2 D, | [G,,G,]2 [G,,G,] [D,F,C]2 [D,A,C] | [E,G,B,]2 [D,F,D] [G,D]2 [C,G,] | %3
 [D,G,D]2 [D,C] [D,C]2 [D,D] | [G,,D,]2 [G,,D,] [G,,D,]2 [G,,G,] | %5
 [G,,G,]2 [G,,G,] [D,F,C]2 [D,A,C] | [E,G,B,]2 [D,F,D] [G,D]2 [C,G,] | %7
 [D,G,D]2 [D,C] [D,B,]2 [D,A,] | [G,,D,]6 | .[D,D]3 .[C,A,]3 | .[B,,F,]3 z2 [B,,B,] | %11
 [E,B,]2 [D,D] [G,D]2 [E,A,] | [D,A,]3- [D,A,]2 [D,A,D] | [G,D]2 [G,C] B,D[G,C] | %14
 [G,,G,]2 [G,,D,] [G,,G,]2 [G,,G,] | [C,G,]2 [C,G,] [D,G,]2 [D,F,] | %16
[M:5/8] [G,,G,]-[G,,G,]- [G,,G,]3 |] %17
V:3
 x6 | x6 | x6 | x6 | x6 | x6 | x6 | x6 | x6 | x6 | x6 | x6 | x6 | z3 .G,3 | x6 | x6 |[M:5/8] x5 |] %17

